X:152
T:Garry Owen
M:6/8
L:1/8
K:G
gf | edc BAG | BcB Bgf | edc BAG | ABA Agf | 
edc BAG | BcB B3 | def gdB | ABA A :| 
Bc | d2B d2B | d2B dgf | e2 c e2 c | e2 c e2 f | 
g2 a b2 a | gfe d2d | def gdB | ABA A :| 

